images/youtube.svg

<svg width="50" height="50" viewBox="0 0 50 50" fill="none" xmlns="http://www.w3.org/2000/svg">
<path d="M41.0568 49.144C30.3631 50.2853 19.6369 50.2853 8.94318 49.144C4.67911 48.6889 1.31111 45.3209 0.856018 41.0564C-0.285339 30.3627 -0.285339 19.6369 0.856018 8.94318C1.31111 4.67911 4.67911 1.31111 8.94318 0.856018C19.6369 -0.285339 30.3627 -0.285339 41.0564 0.856018C45.3209 1.31111 48.6889 4.67911 49.144 8.94318C50.2853 19.6369 50.2853 30.3627 49.144 41.0564C48.6889 45.3209 45.3213 48.6889 41.0568 49.144Z" fill="url(#paint0_linear)"/>
<path d="M46.4245 10.7517C46.0209 6.96793 43.0325 3.97912 39.2483 3.57514C29.7588 2.56272 20.2412 2.56272 10.7517 3.57514C6.96793 3.97912 3.97912 6.96793 3.57514 10.7517C2.56272 20.2412 2.56272 29.7588 3.57514 39.2479C3.97912 43.0321 6.96793 46.0209 10.7517 46.4245C20.2412 47.4373 29.7588 47.4373 39.2479 46.4245C43.0321 46.0209 46.0209 43.0321 46.4245 39.2479C47.4373 29.7588 47.4373 20.2412 46.4245 10.7517Z" fill="url(#paint1_linear)"/>
<path d="M0.749207 40.02C0.783539 40.3656 0.819016 40.7112 0.856018 41.0568C1.31111 45.3209 4.67911 48.6889 8.94356 49.144C19.6373 50.2853 30.3631 50.2853 41.0568 49.144C45.3213 48.6889 48.6889 45.3209 49.144 41.0568C49.181 40.7112 49.2165 40.3656 49.2512 40.02H0.749207Z" fill="url(#paint2_linear)"/>
<path d="M41.0566 49.144C45.321 48.6889 48.6887 45.3209 49.1438 41.0565C49.6431 36.3804 49.9239 31.6983 49.9864 27.015L39.1252 16.1541C38.5675 15.4629 38.0632 15.3988 37.018 15.1947C36.1711 15.0292 35.3048 14.9163 34.4431 14.8823C31.6877 14.7736 28.9304 14.6702 26.1732 14.6439C22.1246 14.6054 18.0753 14.6187 14.0428 15.0872C12.3041 15.289 10.4662 16.6527 10.2689 18.5116C10.1679 19.4668 9.99238 20.4167 9.93783 21.3742C9.73832 24.8612 9.69674 28.3463 10.1843 31.8196C10.3475 32.9827 10.5272 33.5148 11.3111 34.1633L27.1326 49.9848C31.7762 49.9188 36.4195 49.6388 41.0566 49.144Z" fill="url(#paint3_linear)"/>
<path d="M25.8565 35.7621C21.8206 35.6267 18.6967 35.5496 15.5767 35.4008C14.6245 35.355 13.6446 35.2257 12.7428 34.9328C11.083 34.3941 10.1362 33.1803 9.89013 31.4274C9.40261 27.9541 9.44419 24.469 9.6437 20.982C9.69863 20.0245 9.87411 19.0747 9.9752 18.1195C10.1717 16.2606 12.01 14.8964 13.7487 14.695C17.7816 14.2266 21.8305 14.2132 25.8794 14.2517C28.6367 14.2781 31.3936 14.3814 34.1489 14.4902C35.0107 14.5241 35.877 14.6374 36.7238 14.8026C38.59 15.1669 39.6696 16.3342 39.9984 18.2091C40.4432 20.7459 40.5595 23.3071 40.4661 25.8694C40.3955 27.8088 40.1956 29.7451 39.9946 31.6769C39.7726 33.8089 37.9266 35.0716 36.2642 35.1811C32.4964 35.4294 28.7244 35.6057 25.8565 35.7621Z" fill="url(#paint4_linear)"/>
<path d="M22.0508 29.7169C24.6563 28.1174 27.198 26.556 29.816 24.9485C27.2034 23.3429 24.662 21.7812 22.0508 20.1767V29.7169Z" fill="white"/>
<defs>
<linearGradient id="paint0_linear" x1="11.3743" y1="-1.25048" x2="47.4019" y2="68.1578" gradientUnits="userSpaceOnUse">
<stop stop-color="#FFFCF8"/>
<stop offset="0.1875" stop-color="#FAF8F6"/>
<stop offset="0.4041" stop-color="#ECEEF2"/>
<stop offset="0.6353" stop-color="#D5DCEA"/>
<stop offset="0.875" stop-color="#B5C4DF"/>
<stop offset="1" stop-color="#A1B5D8"/>
</linearGradient>
<linearGradient id="paint1_linear" x1="19.177" y1="21.7246" x2="-65.5289" y2="-25.9225" gradientUnits="userSpaceOnUse">
<stop stop-color="#A1B5D8" stop-opacity="0"/>
<stop offset="0.3094" stop-color="#90A2BD" stop-opacity="0.309804"/>
<stop offset="0.7554" stop-color="#7C8B9C" stop-opacity="0.756863"/>
<stop offset="1" stop-color="#748290"/>
</linearGradient>
<linearGradient id="paint2_linear" x1="25" y1="44.1373" x2="25" y2="51.931" gradientUnits="userSpaceOnUse">
<stop stop-color="#A1B5D8" stop-opacity="0"/>
<stop offset="0.3094" stop-color="#90A2BD" stop-opacity="0.309804"/>
<stop offset="0.7554" stop-color="#7C8B9C" stop-opacity="0.756863"/>
<stop offset="1" stop-color="#748290"/>
</linearGradient>
<linearGradient id="paint3_linear" x1="41.3578" y1="41.3003" x2="7.05599" y2="6.99855" gradientUnits="userSpaceOnUse">
<stop stop-color="#A1B5D8" stop-opacity="0"/>
<stop offset="0.3094" stop-color="#90A2BD" stop-opacity="0.309804"/>
<stop offset="0.7554" stop-color="#7C8B9C" stop-opacity="0.756863"/>
<stop offset="1" stop-color="#748290"/>
</linearGradient>
<linearGradient id="paint4_linear" x1="23.1088" y1="19.5206" x2="27.7005" y2="32.8907" gradientUnits="userSpaceOnUse">
<stop stop-color="#E52D27"/>
<stop offset="1" stop-color="#B31217"/>
</linearGradient>
</defs>
</svg>

<svg width="50" height="50" fill="none" xmlns="http://www.w3.org/2000/svg"><path d="M41.057 49.144a151.029 151.029 0 01-32.114 0 9.104 9.104 0 01-8.087-8.088 151.018 151.018 0 010-32.113A9.104 9.104 0 018.943.856a151.018 151.018 0 0132.113 0 9.104 9.104 0 018.088 8.087 151.025 151.025 0 010 32.113 9.104 9.104 0 01-8.087 8.088z" fill="url(#paint0_linear)"/><path d="M46.425 10.752a8.079 8.079 0 00-7.177-7.177 134.062 134.062 0 00-28.496 0 8.08 8.08 0 00-7.177 7.177 134.058 134.058 0 000 28.496 8.079 8.079 0 007.177 7.177 134.008 134.008 0 0028.496 0 8.078 8.078 0 007.177-7.177 134.008 134.008 0 000-28.496z" fill="url(#paint1_linear)"/><path d="M.75 40.02c.034.346.069.691.106 1.037a9.104 9.104 0 008.088 8.087 151.025 151.025 0 0032.113 0 9.104 9.104 0 008.087-8.087c.037-.346.073-.691.107-1.037H.75z" fill="url(#paint2_linear)"/><path d="M41.057 49.144a9.104 9.104 0 008.087-8.087c.5-4.677.78-9.359.842-14.042l-10.86-10.86c-.558-.692-1.063-.756-2.108-.96a16.972 16.972 0 00-2.575-.313c-2.755-.108-5.513-.212-8.27-.238-4.048-.039-8.098-.025-12.13.443-1.739.202-3.577 1.566-3.774 3.425-.101.955-.277 1.905-.331 2.862-.2 3.487-.241 6.972.246 10.446.164 1.163.343 1.695 1.127 2.343l15.822 15.822a151.48 151.48 0 0013.924-.841z" fill="url(#paint3_linear)"/><path d="M25.857 35.762c-4.036-.135-7.16-.212-10.28-.361-.953-.046-1.932-.175-2.834-.468-1.66-.539-2.607-1.753-2.853-3.506-.487-3.473-.446-6.958-.246-10.445.055-.957.23-1.907.331-2.863.197-1.858 2.035-3.223 3.774-3.424 4.033-.468 8.082-.482 12.13-.443 2.758.026 5.515.13 8.27.238.862.034 1.728.147 2.575.313 1.866.364 2.946 1.531 3.274 3.406.445 2.537.562 5.098.468 7.66-.07 1.94-.27 3.876-.471 5.808-.222 2.132-2.068 3.395-3.73 3.504-3.769.248-7.54.425-10.409.581z" fill="url(#paint4_linear)"/><path d="M22.05 29.717l7.766-4.768a135593.7 135593.7 0 00-7.765-4.772v9.54z" fill="#fff"/><defs><linearGradient id="paint0_linear" x1="11.374" y1="-1.25" x2="47.402" y2="68.158" gradientUnits="userSpaceOnUse"><stop stop-color="#FFFCF8"/><stop offset=".188" stop-color="#FAF8F6"/><stop offset=".404" stop-color="#ECEEF2"/><stop offset=".635" stop-color="#D5DCEA"/><stop offset=".875" stop-color="#B5C4DF"/><stop offset="1" stop-color="#A1B5D8"/></linearGradient><linearGradient id="paint1_linear" x1="19.177" y1="21.725" x2="-65.529" y2="-25.922" gradientUnits="userSpaceOnUse"><stop stop-color="#A1B5D8" stop-opacity="0"/><stop offset=".309" stop-color="#90A2BD" stop-opacity=".31"/><stop offset=".755" stop-color="#7C8B9C" stop-opacity=".757"/><stop offset="1" stop-color="#748290"/></linearGradient><linearGradient id="paint2_linear" x1="25" y1="44.137" x2="25" y2="51.931" gradientUnits="userSpaceOnUse"><stop stop-color="#A1B5D8" stop-opacity="0"/><stop offset=".309" stop-color="#90A2BD" stop-opacity=".31"/><stop offset=".755" stop-color="#7C8B9C" stop-opacity=".757"/><stop offset="1" stop-color="#748290"/></linearGradient><linearGradient id="paint3_linear" x1="41.358" y1="41.3" x2="7.056" y2="6.999" gradientUnits="userSpaceOnUse"><stop stop-color="#A1B5D8" stop-opacity="0"/><stop offset=".309" stop-color="#90A2BD" stop-opacity=".31"/><stop offset=".755" stop-color="#7C8B9C" stop-opacity=".757"/><stop offset="1" stop-color="#748290"/></linearGradient><linearGradient id="paint4_linear" x1="23.109" y1="19.521" x2="27.701" y2="32.891" gradientUnits="userSpaceOnUse"><stop stop-color="#E52D27"/><stop offset="1" stop-color="#B31217"/></linearGradient></defs></svg>
